dist/img/gmail.svg

<svg width="24" height="24" viewBox="0 0 24 24" fill="none" xmlns="http://www.w3.org/2000/svg">
<g id="gmail">
<path id="Vector" d="M15.6105 11.8873L22.5263 16.261V7.32414L15.6105 11.8873ZM2 7.32414V16.261L8.91579 11.8873L2 7.32414ZM21.2474 4.71887H3.27895C2.64737 4.71887 2.12632 5.19256 2.03158 5.80835L12.2632 12.5505L22.4947 5.80835C22.4 5.19256 21.8632 4.71887 21.2474 4.71887ZM14.4263 12.661L12.6105 13.861C12.5 13.9241 12.3895 13.9715 12.2632 13.9715C12.1368 13.9715 12.0105 13.9399 11.9158 13.861L10.1 12.661L2.04737 17.761C2.14211 18.3768 2.66316 18.8347 3.29474 18.8505H21.2632C21.8947 18.8505 22.4158 18.3926 22.5105 17.761L14.4263 12.661Z" fill="black"/>
</g>
</svg>

<svg width="24" height="24" fill="none" xmlns="http://www.w3.org/2000/svg"><path d="M15.61 11.887l6.916 4.374V7.324l-6.915 4.563zM2 7.324v8.937l6.916-4.374L2 7.324zM21.247 4.72H3.28c-.632 0-1.153.474-1.247 1.09l10.231 6.741 10.232-6.742c-.095-.615-.632-1.09-1.248-1.09zm-6.82 7.942l-1.816 1.2a.694.694 0 01-.348.11.538.538 0 01-.347-.11l-1.816-1.2-8.053 5.1a1.287 1.287 0 001.248 1.09h17.968c.632 0 1.153-.458 1.247-1.09l-8.084-5.1z" fill="#000"/></svg>
